src/shared/assets/images/icons/olymp-active.svg

<svg width="48" height="48" viewBox="0 0 48 48" fill="none" xmlns="http://www.w3.org/2000/svg">
<path d="M4.21539 12.5773L24 1.1547L43.7846 12.5773V35.4226L24 46.8453L4.21539 35.4226V12.5773Z" fill="#171E2F" stroke="#FFD644" stroke-width="2"/>
<path d="M20.4083 31.574C20.4271 31.6365 20.4526 31.6948 20.4083 31.7549C21.0556 32.0795 21.7498 32.2819 22.4435 32.4841L22.4637 32.49C22.9545 32.6331 23.4468 32.7713 23.9379 32.914C23.9954 32.9296 24.0468 32.9487 24.1089 32.9296C25.0816 32.6296 26.0746 32.4008 27.0321 32.0514C28.6634 31.4559 29.9255 30.4128 30.9462 29.0488C31.9466 27.7137 32.5484 26.2292 32.7796 24.5971C33.1247 22.1626 32.6654 19.909 31.2004 17.8776C30.5603 16.9901 29.7745 16.2449 28.9393 15.5421C28.893 15.5055 28.8524 15.4626 28.8187 15.4146C29.4749 15.8345 30.0287 16.3713 30.59 16.9155L30.6078 16.9328C29.8833 15.9278 29.6457 14.7733 29.5138 13.5888C29.8195 13.7954 30.1142 14.0381 30.3355 14.3527C30.8036 15.016 31.0252 15.7396 30.8674 16.5494C30.8631 16.5897 30.851 16.6288 30.832 16.6647C30.6578 16.9331 30.7341 17.129 30.9415 17.3686C31.8947 18.4595 32.5411 19.7748 32.8172 21.1848C33.302 23.6471 33.081 26.0392 31.765 28.2307C30.3656 30.5631 28.2733 32.0608 25.6015 32.7699C25.2157 32.8723 24.8256 32.9629 24.4355 33.0598C24.449 33.1171 24.5025 33.1084 24.5419 33.122C24.8476 33.2262 25.1515 33.3369 25.4597 33.4345C25.8026 33.5432 26.0476 33.7626 26.2473 34.0474C26.464 34.3564 26.6743 34.6728 27.0073 34.9089C26.8796 34.9721 26.758 34.9742 26.6413 34.9961C26.5732 35.0089 26.5654 34.9586 26.5484 34.9169C26.3899 34.5228 26.1175 34.2019 25.8498 33.8786C25.8071 33.8305 25.7547 33.7916 25.6958 33.7644C25.1919 33.5046 24.6532 33.3369 24.1075 33.1883C24.0562 33.173 24.0016 33.173 23.9504 33.1883C23.4564 33.3439 22.9609 33.4932 22.4932 33.7185C22.3232 33.8007 22.1769 33.9232 22.0676 34.0748C21.8662 34.345 21.6413 34.6016 21.5321 34.9266C21.5105 34.9915 21.4779 35.0089 21.4144 34.9961C21.3062 34.9742 21.197 34.9565 21.0424 34.929C21.4821 34.6287 21.691 34.1891 21.9999 33.83C22.0942 33.7187 22.2122 33.6289 22.3456 33.5668C22.7609 33.3723 23.1975 33.2348 23.639 33.0664C23.428 33.0154 23.2191 32.9563 23.0063 32.9112C20.7565 32.4355 18.8848 31.316 17.3305 29.6784C16.0818 28.363 15.4045 26.7761 15.1119 25.0183C14.9197 23.8596 14.9055 22.7012 15.1087 21.5459C15.3786 20.0118 16.0258 18.6363 17.0219 17.4276C17.245 17.1571 17.2914 16.9522 17.1822 16.6112C16.9283 15.8212 17.1588 15.0827 17.6096 14.4066C17.8369 14.0652 18.1436 13.8003 18.4819 13.5919C18.3351 14.7601 18.1333 15.9122 17.4131 16.9088C17.9936 16.3234 18.5887 15.7764 19.2955 15.357C19.072 15.5417 18.8451 15.723 18.6256 15.9126C17.0205 17.2963 15.8633 18.9596 15.3537 21.0118C15.0762 22.1281 15.0212 23.2862 15.1917 24.4228C15.4655 26.2778 16.1471 27.9616 17.3776 29.42C18.1706 30.3593 19.0923 31.1382 20.2125 31.6809C20.275 31.7111 20.3427 31.7306 20.4079 31.7552C20.3909 31.5566 20.2764 31.408 20.126 31.2937C19.1199 30.5281 18.894 29.5155 19.1391 28.3498L19.14 28.3456C19.1599 28.2511 19.1799 28.1564 19.2043 28.063C19.2377 27.9345 19.2753 27.8074 19.3132 27.672C19.405 27.6966 19.4355 27.7782 19.4859 27.8355C19.9395 28.3526 20.2654 28.9325 20.3824 29.6124C20.4491 29.9996 20.4044 30.3864 20.3519 30.7684C20.3142 31.0378 20.3334 31.312 20.4083 31.574Z" fill="white"/>
<path d="M13.1302 22.0855C12.6972 21.2244 12.5855 20.3024 12.5855 19.3347C13.5646 20.0153 14.164 20.9261 14.5097 22.0095C14.6418 22.4291 14.7277 22.8613 14.7661 23.2988C14.7849 23.5064 14.8548 23.7016 14.9144 23.9075C14.7456 23.6603 14.464 23.5731 14.2324 23.4172C13.731 23.0797 13.3948 22.6116 13.1302 22.0855Z" fill="white"/>
<path d="M35.4237 19.3437C35.4231 19.3441 35.4225 19.3445 35.422 19.345C35.4204 20.4932 35.2657 21.5786 34.6304 22.5512C34.3601 22.9759 33.9811 23.3241 33.5311 23.5613C33.3715 23.6447 33.2066 23.7224 33.1317 23.8391C33.3169 22.8651 33.4381 21.8306 33.9829 20.9136C34.349 20.3006 34.8386 19.7669 35.422 19.345C35.422 19.3445 35.422 19.3441 35.422 19.3437H35.4237Z" fill="white"/>
<path d="M17.0659 32.797C16.8106 32.6435 16.5726 32.4636 16.2967 32.2761C18.1149 31.7872 19.8207 31.9618 21.4296 32.8286C21.0222 32.8334 20.6533 33.0494 20.2558 33.1758C19.1338 33.5331 18.0684 33.3942 17.0659 32.797Z" fill="white"/>
<path d="M12.0674 23.2259C12.0415 23.1036 12.0255 22.9793 12 22.8283C12.5603 23.0272 13.0667 23.2613 13.5139 23.6058C14.0891 24.0492 14.4757 24.6315 14.7888 25.2666C14.9459 25.5844 15.0924 25.9056 15.2498 26.2389C14.5019 25.9913 13.7604 25.7538 13.1692 25.2173C12.572 24.6749 12.2319 23.9971 12.0674 23.2259Z" fill="white"/>
<path d="M27.5938 33.0612C27.3013 32.9383 27.0048 32.8227 26.675 32.8181C27.4552 32.5344 28.1967 32.1469 29.0443 32.0532C29.9589 31.9535 30.8529 32.0358 31.7749 32.273C31.6625 32.3556 31.5717 32.4216 31.4816 32.4886C30.8752 32.94 30.2124 33.2591 29.4429 33.339C28.8123 33.4071 28.1745 33.3113 27.5938 33.0612Z" fill="white"/>
<path d="M17.6454 30.3569C17.9067 30.5857 18.1358 30.8597 18.4795 30.9951C18.1958 30.9937 17.9337 31.0948 17.6603 31.1378C17.0872 31.2285 16.5336 31.1354 15.9935 30.9482C15.2627 30.6932 14.5995 30.2812 14.0526 29.7423C13.9383 29.6314 14.0034 29.6132 14.1048 29.5848L14.1054 29.5846C15.4279 29.2162 16.6102 29.4506 17.6454 30.3569Z" fill="white"/>
<path d="M33.8509 25.8465C33.513 25.9899 33.164 26.1083 32.8066 26.2431C33.0151 25.8003 33.2105 25.3708 33.4183 24.9472C33.9307 23.9026 34.8028 23.263 35.8862 22.8658L35.8934 22.8631C35.913 22.856 35.9327 22.8488 35.9532 22.8436C35.9689 22.8429 35.9846 22.844 36 22.847C35.9365 23.5144 35.7259 24.1273 35.3383 24.6829C34.9634 25.2187 34.4538 25.591 33.8509 25.8465Z" fill="white"/>
<path d="M34.1158 29.6356C32.8243 30.8371 31.4139 31.5139 29.617 30.968C29.9167 30.8538 30.1202 30.6208 30.3553 30.4294C30.882 29.9999 31.4409 29.6311 32.1253 29.4888C32.7874 29.3513 33.4342 29.4193 34.1158 29.6356Z" fill="white"/>
<path d="M23.4908 32.4771C23.4989 32.5456 23.5106 32.6136 23.5237 32.7022C23.0248 32.3198 22.4722 32.0302 22.0673 31.5622C21.3204 30.7048 21.2161 29.744 21.5843 28.7064C21.6176 28.613 21.6474 28.6005 21.7215 28.6825C22.7067 29.7711 23.317 31.0264 23.4908 32.4771Z" fill="white"/>
<path d="M24.511 32.7254C24.6855 31.1236 25.3043 29.7711 26.4016 28.5779C26.7874 29.5933 26.7647 30.5242 26.115 31.3906C25.8285 31.7733 25.4529 32.0622 25.0483 32.3171C24.8706 32.4289 24.6834 32.5278 24.511 32.7254Z" fill="white"/>
<path d="M13.0398 27.5189C12.7167 27.2223 12.4362 26.8886 12.1454 26.5389H12.145C13.9625 26.4917 15.2612 27.4043 16.3871 28.6561C16.1091 28.7891 15.7977 28.8089 15.4832 28.7602C14.5292 28.613 13.7349 28.1567 13.0398 27.5189Z" fill="white"/>
<path d="M35.6752 26.5226C35.7351 26.5205 35.794 26.5226 35.8879 26.5226H35.8876C34.9985 27.638 33.9868 28.521 32.5275 28.7571C32.2167 28.8108 31.8967 28.7762 31.6054 28.6575C31.9186 28.3606 32.2164 28.0612 32.5328 27.7814C33.424 26.9924 34.4715 26.5681 35.6752 26.5226Z" fill="white"/>
<path d="M15.0076 21.0073C13.8498 19.7611 13.6022 18.3433 14.3037 16.7512C14.7945 17.287 15.1406 17.878 15.2598 18.5836C15.3711 19.2423 15.2562 19.8843 15.1073 20.5236C15.0679 20.6924 15.0371 20.8632 15.0076 21.0073Z" fill="white"/>
<path d="M33.7045 16.7557C34.3524 18.3332 34.1953 19.7642 32.9817 21.0004C32.8445 20.2361 32.5941 19.4503 32.7388 18.6225C32.864 17.9071 33.2027 17.3008 33.7045 16.7557Z" fill="white"/>
<path d="M16.2662 24.8364C16.5964 24.1923 17.101 23.7117 17.7596 23.3589C17.6698 24.2572 17.5227 25.1194 17.1379 25.926C17.0067 26.1979 16.8541 26.4594 16.6815 26.708C16.5224 26.9373 16.3148 27.1419 16.2642 27.4307C16.2634 27.4704 16.2598 27.5109 16.2527 27.5522C16.2534 27.51 16.2573 27.4696 16.2642 27.4307C16.2691 27.1642 16.1447 26.93 16.0715 26.6862C15.8786 26.0431 15.9641 25.4267 16.2662 24.8364Z" fill="white"/>
<path d="M31.7749 27.2664C31.7689 27.3463 31.7575 27.4258 31.7487 27.5053C31.7256 27.2827 31.6136 27.1015 31.4806 26.9271C30.8174 26.057 30.4759 25.0649 30.3302 23.9995C30.3021 23.7954 30.2713 23.5915 30.239 23.3696C30.8181 23.67 31.2749 24.0745 31.6079 24.6117C32.0817 25.3764 32.1913 26.1747 31.8409 27.0157C31.8057 27.0954 31.7834 27.18 31.7749 27.2664Z" fill="white"/>
<path d="M28.3861 28.0224C28.4776 27.9029 28.5779 27.7897 28.6989 27.6442V27.6428C28.9826 28.5724 29.1553 29.4627 28.7077 30.3579C28.5601 30.6676 28.3417 30.9399 28.0694 31.1538C27.9087 31.2771 27.7392 31.3924 27.6382 31.583C27.7587 31.1729 27.6772 30.7715 27.6304 30.3718C27.5257 29.477 27.852 28.7168 28.3861 28.0224Z" fill="white"/>
<path d="M32.6917 22.123C32.6895 22.1166 32.6873 22.1102 32.6852 22.1038C32.5494 21.8056 32.2795 21.6769 31.9959 21.5667C31.0877 21.199 30.3635 20.6073 29.7911 19.8305C29.6915 19.6951 29.5893 19.5614 29.4879 19.4263C29.4986 19.3874 29.5315 19.3923 29.5588 19.394C30.2681 19.4392 30.944 19.5937 31.5448 19.9882C32.0785 20.3392 32.4204 20.8184 32.5377 21.4435C32.5791 21.6625 32.6127 21.8834 32.6852 22.1038C32.6876 22.1091 32.69 22.1145 32.6924 22.1199L32.6917 22.123Z" fill="white"/>
<path d="M17.6017 19.5093C17.9071 19.4335 18.2194 19.3877 18.5341 19.3729C17.9489 20.2851 17.2205 21.0028 16.2375 21.4504C16.163 21.4844 16.0882 21.5192 16.0123 21.5504C15.7438 21.6619 15.4825 21.7817 15.3442 22.0636C15.4881 21.5869 15.4821 21.0757 15.7832 20.6493C16.2286 20.0177 16.8698 19.6951 17.6017 19.5093Z" fill="white"/>
<path d="M29.7759 25.5687C29.7759 25.5693 29.7759 25.5699 29.7759 25.5705C30.2407 26.0239 30.492 26.5338 30.6171 27.1105C30.7387 27.6796 30.6763 28.2352 30.494 28.7832C30.4486 28.9196 30.4124 29.0551 30.3681 29.1974C30.3238 29.3398 30.3479 29.4829 30.355 29.6304C30.1897 28.9926 29.6787 28.505 29.5723 27.8421C29.5046 27.4275 29.5468 27.0254 29.6291 26.6216C29.697 26.2898 29.7869 25.9611 29.7759 25.5705C29.7753 25.5699 29.7747 25.5693 29.7741 25.5687H29.7759Z" fill="white"/>
<path d="M18.1855 28.5425C18.0028 28.8887 17.7635 29.2082 17.6666 29.5995C17.7053 29.3693 17.6443 29.1578 17.5727 28.9505C17.3266 28.2321 17.2542 27.5098 17.4897 26.7737C17.6181 26.3762 17.8277 26.0085 18.1057 25.6927C18.1289 25.6665 18.1537 25.6415 18.1798 25.618C18.1872 25.6114 18.2007 25.6111 18.2277 25.6031C18.2277 26.1743 18.4479 26.7094 18.4759 27.2733C18.4965 27.7142 18.3963 28.1524 18.1855 28.5425Z" fill="white"/>
<path d="M32.6803 24.4214C32.703 24.4648 32.7487 24.501 32.7229 24.6107C32.5058 24.128 32.0583 23.961 31.687 23.7078C31.1962 23.3745 30.8462 22.9415 30.6472 22.3859C30.5387 22.0824 30.4458 21.7709 30.2529 21.4855C30.3302 21.4685 30.3887 21.4886 30.4479 21.5032C31.0297 21.6473 31.5491 21.97 31.9299 22.4241C32.3108 22.8782 32.5331 23.4398 32.5643 24.0266C32.5731 24.1649 32.6127 24.2997 32.6803 24.4214Z" fill="white"/>
<path d="M15.2651 24.5103C15.2871 24.4737 15.3105 24.4386 15.3351 24.4051C15.4748 24.1474 15.4256 23.8542 15.4906 23.5877C15.6807 22.8106 16.1261 22.2071 16.8233 21.7869C17.1052 21.6128 17.4204 21.4968 17.7496 21.4459C17.5131 21.8504 17.4173 22.2803 17.2226 22.6838C17.028 23.0873 16.7262 23.3967 16.3559 23.6474C16.2605 23.7152 16.1613 23.7778 16.0588 23.8349C15.7802 23.9825 15.5218 24.1507 15.3351 24.4051C15.3157 24.4409 15.2926 24.4761 15.2651 24.5103Z" fill="white"/>
<path d="M15.9942 18.5961C15.1587 17.2786 15.4562 15.8542 16.3031 14.9347C16.3407 15.3851 16.5297 15.7716 16.5719 16.1911C16.6425 16.8932 16.4942 17.5554 16.1992 18.1915C16.1361 18.3276 16.0651 18.4596 15.9942 18.5961Z" fill="white"/>
<path d="M32.4087 16.2477C32.6264 17.0828 32.4608 17.8578 32.0235 18.587C31.315 17.4349 31.254 16.2227 31.7331 14.9629C32.0552 15.3352 32.2863 15.7746 32.4087 16.2477Z" fill="white"/>
<path d="M27.3328 16.8196C27.2052 16.7182 27.0821 16.6126 26.9427 16.497C28.3357 16.2751 29.6301 16.3487 30.6249 17.4658C30.2543 17.4512 29.8755 17.5634 29.4829 17.5682C28.6691 17.5783 27.9577 17.321 27.3328 16.8196Z" fill="white"/>
<path d="M21.07 16.48C20.0441 17.5599 18.7774 17.738 17.411 17.421C17.9273 16.9991 18.4802 16.5664 19.2125 16.4525C19.8349 16.3563 20.4537 16.4081 21.07 16.48Z" fill="white"/>
<path d="M25.9022 14.9247C26.7477 14.4364 28.2552 14.9649 29.2482 16.0685V16.0692C28.2921 16.1317 27.3768 15.982 26.5984 15.3466C26.3909 15.1778 26.1859 15.0007 25.9022 14.9247Z" fill="white"/>
<path d="M18.727 16.1174C18.7272 16.1174 18.7275 16.1174 18.7277 16.1173C19.2687 15.5017 19.8714 15.0131 20.6863 14.8333C21.1576 14.7312 21.6204 14.7236 22.1049 14.9028C21.7272 15.0316 21.469 15.299 21.1669 15.5021C20.6267 15.8657 20.0335 16.0612 19.3777 16.0654C19.16 16.0662 18.9427 16.0836 18.7277 16.1173C18.7275 16.1176 18.7272 16.1179 18.727 16.1181V16.1174Z" fill="white"/>
<path d="M29.0641 15.2688C29.1273 15.3959 29.2187 15.5098 29.2975 15.6292V15.6299C29.0354 15.342 28.6903 15.1563 28.3722 14.9392C27.9169 14.6262 27.5273 14.2304 27.2247 13.7732C27.0381 13.4961 26.8849 13.1916 26.5619 13.0009C27.4577 12.9763 28.7567 13.5989 28.978 14.8458C29.0031 14.9879 29.001 15.1417 29.0641 15.2688Z" fill="white"/>
<path d="M20.464 13.1881C20.7561 13.0597 21.0733 12.9956 21.3935 13.0002C21.1977 13.1315 21.0626 13.3072 20.9505 13.4971C20.5552 14.1651 19.9966 14.7263 19.3249 15.1306C19.1057 15.2646 18.8901 15.4084 18.7242 15.6188C18.7178 15.5955 18.7093 15.5799 18.7132 15.5761C18.9217 15.3608 18.9834 15.0924 19.0377 14.809C19.1919 14.0048 19.7274 13.5065 20.464 13.1881Z" fill="white"/>
<path d="M28.6407 18.2645C28.6407 18.2645 28.6407 18.2645 28.6407 18.2645C29.2057 18.2799 29.7495 18.018 30.3305 18.1433C30.8 18.2443 31.1898 18.4624 31.4597 18.8589C31.5788 19.0345 31.7262 19.19 31.8962 19.3194C31.5834 19.0999 31.2416 19.184 30.9054 19.1906C30.0514 19.2076 29.3099 18.9256 28.684 18.3547C28.6685 18.3455 28.6561 18.332 28.6484 18.316C28.6408 18.2999 28.6381 18.282 28.6407 18.2645C28.6405 18.2645 28.6402 18.2645 28.64 18.2645H28.6407Z" fill="white"/>
<path d="M18.5171 18.1568C18.8018 18.2165 19.0916 18.2504 19.3827 18.2582H19.382C18.9593 18.6916 18.4741 18.9457 17.9252 19.0853C17.5404 19.1833 17.1496 19.2242 16.7521 19.1669C16.5421 19.1367 16.3471 19.1912 16.1556 19.2888C16.4098 19.1169 16.5247 18.8339 16.7375 18.6336C17.2404 18.1589 17.8433 18.0273 18.5171 18.1568Z" fill="white"/>
</svg>

<svg xmlns="http://www.w3.org/2000/svg" width="48" height="48" viewBox="0 0 48 48" fill="none"><path fill="#171E2F" stroke="#FFD644" stroke-width="2" d="M4.215 12.577 24 1.155l19.785 11.422v22.846L24 46.845 4.215 35.423V12.577Z"/><path fill="#fff" d="M20.408 31.574c.02.063.045.12 0 .18.648.326 1.342.528 2.035.73l.02.006c.491.143.984.281 1.475.424.057.016.109.035.17.016.974-.3 1.967-.53 2.924-.879 1.631-.595 2.893-1.638 3.914-3.002a9.527 9.527 0 0 0 1.834-4.452c.345-2.434-.115-4.688-1.58-6.72-.64-.887-1.425-1.632-2.26-2.335a.608.608 0 0 1-.121-.127c.656.42 1.21.956 1.771 1.5l.018.018c-.725-1.005-.962-2.16-1.094-3.344.306.206.6.45.822.764.468.663.69 1.387.531 2.196a.319.319 0 0 1-.035.116c-.174.268-.098.464.11.704a8.193 8.193 0 0 1 1.875 3.816c.485 2.462.264 4.854-1.052 7.046-1.4 2.332-3.492 3.83-6.163 4.539-.386.102-.776.193-1.166.29.013.057.067.048.106.062.306.104.61.215.918.313.343.108.588.328.787.612.217.31.427.626.76.862-.127.063-.249.065-.366.087-.068.013-.076-.037-.093-.08-.158-.393-.43-.714-.698-1.037a.468.468 0 0 0-.154-.115c-.504-.26-1.043-.427-1.588-.576a.275.275 0 0 0-.158 0c-.494.156-.99.305-1.457.53-.17.083-.316.205-.425.357-.202.27-.427.527-.536.852-.021.065-.054.082-.118.07-.108-.023-.217-.04-.372-.068.44-.3.649-.74.958-1.099.094-.111.212-.201.346-.263.415-.195.852-.332 1.293-.5-.211-.052-.42-.11-.633-.156-2.25-.476-4.121-1.595-5.675-3.233-1.25-1.315-1.926-2.902-2.22-4.66a10.24 10.24 0 0 1-.002-3.472 8.788 8.788 0 0 1 1.913-4.118c.223-.27.27-.476.16-.817-.254-.79-.023-1.528.428-2.204.227-.342.534-.607.872-.815-.147 1.168-.349 2.32-1.069 3.317.58-.586 1.176-1.133 1.883-1.552-.224.185-.45.366-.67.556-1.606 1.383-2.763 3.047-3.272 5.099a8.752 8.752 0 0 0-.162 3.41c.274 1.856.955 3.54 2.186 4.998.793.94 1.714 1.718 2.834 2.26.063.031.13.05.196.075-.017-.198-.132-.347-.282-.461-1.006-.766-1.232-1.779-.987-2.944l.001-.004c.02-.095.04-.19.064-.283.034-.128.071-.256.11-.391.091.025.122.106.172.163.453.518.78 1.098.896 1.777.067.388.022.774-.03 1.156-.038.27-.019.544.056.806ZM13.13 22.085c-.433-.86-.545-1.783-.545-2.75.98.68 1.579 1.591 1.925 2.674.132.42.218.852.256 1.29.019.207.089.403.148.608-.168-.247-.45-.334-.682-.49-.501-.337-.837-.805-1.102-1.332Z"/><path fill="#fff" d="m35.424 19.344-.002.001c-.002 1.148-.156 2.234-.792 3.206a2.91 2.91 0 0 1-1.099 1.01c-.16.084-.324.161-.4.278.186-.974.307-2.008.852-2.925a5.275 5.275 0 0 1 1.439-1.569v-.001h.002ZM17.066 32.797c-.255-.153-.493-.333-.77-.52 1.819-.49 3.525-.315 5.134.552-.408.004-.777.22-1.174.347-1.122.357-2.188.218-3.19-.379ZM12.067 23.226c-.026-.122-.042-.247-.067-.398.56.2 1.067.433 1.514.778.575.443.962 1.025 1.275 1.66.157.318.303.64.46.973-.747-.248-1.489-.485-2.08-1.022-.597-.542-.937-1.22-1.102-1.991ZM27.594 33.061c-.293-.123-.59-.238-.919-.243.78-.284 1.522-.671 2.37-.765.914-.1 1.808-.017 2.73.22l-.293.216c-.607.451-1.27.77-2.04.85a3.679 3.679 0 0 1-1.848-.278ZM17.645 30.357c.262.229.49.503.835.638-.284-.001-.546.1-.82.143-.573.09-1.126-.003-1.667-.19a5.21 5.21 0 0 1-1.94-1.206c-.115-.11-.05-.129.052-.157 1.323-.369 2.505-.134 3.54.772ZM33.85 25.846c-.337.144-.686.262-1.043.397.208-.443.404-.872.611-1.296.513-1.044 1.385-1.684 2.468-2.081l.007-.003.06-.02c.016 0 .032.001.047.004a3.767 3.767 0 0 1-.662 1.836c-.375.536-.884.908-1.487 1.163ZM34.116 29.636c-1.292 1.201-2.702 1.878-4.499 1.332.3-.114.503-.347.738-.539.527-.43 1.086-.798 1.77-.94.662-.138 1.31-.07 1.99.147ZM23.49 32.477c.009.069.02.137.034.225-.5-.382-1.052-.672-1.457-1.14-.747-.857-.85-1.818-.483-2.856.034-.093.063-.105.137-.023.986 1.088 1.596 2.343 1.77 3.794ZM24.511 32.725c.175-1.601.793-2.954 1.89-4.147.386 1.015.364 1.946-.286 2.813-.287.382-.662.671-1.067.926-.177.112-.365.21-.537.408ZM13.04 27.519c-.323-.297-.604-.63-.895-.98 1.818-.047 3.116.865 4.242 2.117-.278.133-.59.153-.904.104-.954-.147-1.748-.603-2.443-1.241ZM35.675 26.523c.06-.003.119 0 .213 0-.89 1.115-1.901 1.998-3.36 2.234-.311.054-.631.02-.923-.1.314-.296.611-.596.928-.876a4.888 4.888 0 0 1 3.142-1.258ZM15.008 21.007c-1.158-1.246-1.406-2.664-.704-4.256.49.536.837 1.127.956 1.833.111.658-.004 1.3-.153 1.94-.04.168-.07.34-.1.483ZM33.705 16.756c.647 1.577.49 3.008-.723 4.244-.138-.764-.388-1.55-.243-2.378.125-.715.464-1.321.966-1.866ZM16.266 24.836c.33-.644.835-1.124 1.494-1.477-.09.898-.237 1.76-.622 2.567a5.762 5.762 0 0 1-.457.782c-.159.23-.366.434-.417.723 0 .04-.004.08-.011.121 0-.042.004-.082.011-.121.005-.267-.12-.501-.192-.745-.193-.643-.108-1.26.194-1.85ZM31.775 27.266c-.006.08-.017.16-.026.24-.023-.223-.135-.404-.268-.579-.664-.87-1.005-1.862-1.15-2.927l-.092-.63c.58.3 1.036.704 1.369 1.242.474.764.583 1.563.233 2.404a.819.819 0 0 0-.066.25ZM28.386 28.022c.092-.12.192-.232.313-.378v-.001c.284.93.456 1.82.009 2.715-.148.31-.366.582-.639.796-.16.123-.33.238-.43.429.12-.41.038-.811-.009-1.211-.104-.895.222-1.655.756-2.35ZM32.692 22.123l-.007-.02c-.136-.297-.406-.426-.69-.536-.907-.368-1.632-.96-2.204-1.736-.1-.136-.202-.27-.303-.405.01-.039.044-.034.07-.032.71.045 1.386.2 1.987.594.533.351.875.83.993 1.456.041.219.075.44.147.66l.007.016v.003ZM17.602 19.51c.305-.077.617-.122.932-.137-.585.912-1.313 1.63-2.296 2.077-.075.034-.15.07-.226.1-.268.112-.53.232-.668.514.144-.477.138-.988.44-1.415.445-.631 1.086-.954 1.818-1.14ZM29.776 25.569v.002c.465.453.716.963.841 1.54.122.569.06 1.124-.123 1.672-.045.137-.082.272-.126.414-.044.143-.02.286-.013.433-.165-.637-.676-1.125-.783-1.788-.067-.415-.025-.817.057-1.22.068-.332.158-.66.147-1.052l-.002-.001h.002ZM18.186 28.543c-.183.346-.422.665-.52 1.056.04-.23-.022-.441-.093-.648-.246-.719-.319-1.441-.083-2.177a3.06 3.06 0 0 1 .616-1.081.933.933 0 0 1 .074-.075c.007-.007.02-.007.048-.015 0 .571.22 1.106.248 1.67.02.441-.08.88-.29 1.27ZM32.68 24.421c.023.044.069.08.043.19-.217-.483-.665-.65-1.036-.903a2.64 2.64 0 0 1-1.04-1.322c-.108-.304-.201-.615-.394-.9.077-.018.136.003.195.017a2.816 2.816 0 0 1 1.482.921c.38.454.603 1.016.634 1.603a.935.935 0 0 0 .116.394ZM15.265 24.51c.022-.036.045-.071.07-.105.14-.258.09-.55.156-.817.19-.777.635-1.38 1.332-1.801.282-.174.597-.29.927-.341-.237.404-.333.834-.527 1.238-.195.403-.497.713-.867.963-.096.068-.195.13-.297.188-.279.148-.537.316-.724.57a.699.699 0 0 1-.07.105ZM15.994 18.596c-.835-1.317-.538-2.742.31-3.661.037.45.226.837.268 1.256.07.702-.078 1.364-.373 2-.063.137-.134.269-.205.405ZM32.409 16.248c.217.835.052 1.61-.386 2.339-.708-1.152-.769-2.364-.29-3.624.322.372.553.812.676 1.285ZM27.333 16.82c-.128-.102-.25-.207-.39-.323 1.393-.222 2.687-.148 3.682.969-.37-.015-.75.097-1.142.102a3.271 3.271 0 0 1-2.15-.748ZM21.07 16.48c-1.026 1.08-2.293 1.258-3.659.941.516-.422 1.07-.855 1.801-.968.623-.097 1.242-.045 1.858.027ZM25.902 14.925c.846-.489 2.353.04 3.346 1.143v.001c-.956.063-1.871-.087-2.65-.722-.207-.17-.412-.346-.696-.422ZM18.727 16.117c.542-.615 1.144-1.104 1.96-1.284.47-.102.933-.11 1.418.07-.378.129-.636.396-.938.6-.54.363-1.134.558-1.79.562a4.3 4.3 0 0 0-.65.052v.001ZM29.064 15.269c.063.127.155.24.233.36-.262-.287-.607-.473-.925-.69a4.288 4.288 0 0 1-1.147-1.166c-.187-.277-.34-.581-.663-.772.896-.025 2.195.598 2.416 1.845.025.142.023.296.086.423ZM20.464 13.188a2.23 2.23 0 0 1 .93-.188c-.196.132-.331.307-.443.497a4.707 4.707 0 0 1-1.626 1.634c-.22.134-.435.277-.6.488-.007-.024-.016-.04-.012-.043.209-.215.27-.484.325-.767.154-.804.69-1.302 1.426-1.62ZM28.64 18.265c.566.015 1.11-.247 1.69-.122.47.101.86.32 1.13.716.119.175.266.331.436.46-.313-.22-.654-.135-.99-.128a3.096 3.096 0 0 1-2.222-.836.09.09 0 0 1-.043-.09h-.001ZM18.517 18.157c.285.06.575.093.866.101h-.001a3.002 3.002 0 0 1-1.457.827 2.988 2.988 0 0 1-1.173.082c-.21-.03-.405.024-.596.122.254-.172.369-.455.582-.655.502-.475 1.105-.607 1.78-.477Z"/></svg>
